optimized/solid/clipboard-list.svg

<svg xmlns="http://www.w3.org/2000/svg" viewBox="0 0 20 20" fill="currentColor" aria-hidden="true">
  <path d="M9 2C8.44772 2 8 2.44772 8 3C8 3.55228 8.44772 4 9 4H11C11.5523 4 12 3.55228 12 3C12 2.44772 11.5523 2 11 2H9Z"/>
  <path fill-rule="evenodd" d="M4 5C4 3.89543 4.89543 3 6 3C6 4.65685 7.34315 6 9 6H11C12.6569 6 14 4.65685 14 3C15.1046 3 16 3.89543 16 5V16C16 17.1046 15.1046 18 14 18H6C4.89543 18 4 17.1046 4 16V5ZM7 9C6.44772 9 6 9.44772 6 10C6 10.5523 6.44772 11 7 11H7.01C7.56228 11 8.01 10.5523 8.01 10C8.01 9.44772 7.56228 9 7.01 9H7ZM10 9C9.44772 9 9 9.44772 9 10C9 10.5523 9.44772 11 10 11H13C13.5523 11 14 10.5523 14 10C14 9.44772 13.5523 9 13 9H10ZM7 13C6.44772 13 6 13.4477 6 14C6 14.5523 6.44772 15 7 15H7.01C7.56228 15 8.01 14.5523 8.01 14C8.01 13.4477 7.56228 13 7.01 13H7ZM10 13C9.44772 13 9 13.4477 9 14C9 14.5523 9.44772 15 10 15H13C13.5523 15 14 14.5523 14 14C14 13.4477 13.5523 13 13 13H10Z" clip-rule="evenodd"/>
</svg>

<svg xmlns="http://www.w3.org/2000/svg" viewBox="0 0 20 20" fill="currentColor" aria-hidden="true">
  <path d="M9 2a1 1 0 000 2h2a1 1 0 100-2H9z"/>
  <path fill-rule="evenodd" d="M4 5a2 2 0 012-2 3 3 0 003 3h2a3 3 0 003-3 2 2 0 012 2v11a2 2 0 01-2 2H6a2 2 0 01-2-2V5zm3 4a1 1 0 000 2h.01a1 1 0 100-2H7zm3 0a1 1 0 000 2h3a1 1 0 100-2h-3zm-3 4a1 1 0 100 2h.01a1 1 0 100-2H7zm3 0a1 1 0 100 2h3a1 1 0 100-2h-3z" clip-rule="evenodd"/>
</svg>
